MA4T1/111/aimg/azul.svg

<svg clip-rule="evenodd" fill-rule="evenodd" stroke-linejoin="round" stroke-miterlimit="2" viewBox="0 0 58 177" xmlns="http://www.w3.org/2000/svg"><g fill-rule="nonzero"><path d="m0 29.813c.318-.475.593-.852.829-1.251.192-.326.026-.53-.309-.594-.191-.037-.393-.042-.588-.027-.79.06-.873.218-.491.956.142.275.323.531.559.916m-2.579-4.717c.331.712.607 1.317.894 1.917.181.378.447.439.876.366.614-.105 1.255-.086 1.882-.066.704.022.987-.173 1.142-.898.145-.677.022-.924-.699-1.129-1.268-.362-2.555-.578-4.095-.19m4.966-.318c.45-2.037.943-3.965 1.293-5.918.413-2.311.575-4.673 1.079-6.963.781-3.544 1.214-7.139 1.822-10.708.175-1.032-.1-1.471-1.14-1.496-.987-.024-1.984.106-2.969.231-.697.089-1.146.531-1.298 1.233-.235 1.089-.503 2.173-.685 3.271-.253 1.532-.447 3.074-.651 4.615-.607 4.58-1.205 9.161-1.805 13.742-.036.277-.046.557-.086.832-.065.44.166.594.551.552 1.299-.14 2.521.243 3.889.609m.352 2.624c-.802 1.023-1.583 2.064-2.418 3.06-.355.422-.586.405-.827-.018-.788-1.379-1.564-2.766-2.28-4.183-.183-.362-.222-.857-.167-1.27.45-3.356.939-6.707 1.414-10.059.029-.198.049-.396.073-.594.384-3.203.739-6.411 1.167-9.608.179-1.338.504-2.658.78-3.983.123-.585.49-1.027 1.036-1.234.591-.223 1.212-.418 1.836-.492.788-.092 1.593-.078 2.39-.055.984.029 1.542.575 1.59 1.57.022.471-.063.951-.132 1.423-.279 1.931-.434 3.894-.886 5.785-.974 4.08-1.274 8.265-2.091 12.366-.42 2.107-.833 4.216-1.262 6.321-.063.309-.195.604-.295.906.024.022.048.044.072.065" fill="#231f20" transform="matrix(5.55556 0 0 5.55556 16.52419624 5.8427704)"/><path d="m0 25.109c-1.368-.367-2.589-.749-3.889-.609-.385.042-.615-.113-.551-.552.041-.276.05-.556.086-.832.6-4.581 1.199-9.162 1.805-13.742.204-1.541.399-3.083.652-4.616.181-1.098.449-2.181.685-3.27.151-.703.6-1.145 1.297-1.233.985-.125 1.982-.255 2.97-.231 1.04.024 1.314.464 1.139 1.496-.608 3.568-1.041 7.164-1.821 10.708-.504 2.289-.666 4.652-1.08 6.963-.35 1.953-.842 3.881-1.293 5.918" fill="#1375bc" transform="matrix(5.55556 0 0 5.55556 29.78531796 4.00388004)"/><path d="m0-1.967c1.54-.389 2.827-.172 4.095.189.72.206.843.453.699 1.129-.155.725-.439.921-1.142.899-.628-.02-1.268-.039-1.882.066-.43.073-.696.012-.876-.366-.288-.6-.563-1.206-.894-1.917" fill="#ffe5a6" transform="matrix(5.55556 0 0 5.55556 2.20196256 156.19289068)"/><path d="m0 1.887c-.236-.385-.417-.641-.559-.916-.382-.738-.299-.896.491-.956.195-.015.397-.01.588.027.335.064.501.268.309.594-.236.399-.511.776-.829 1.251" fill="#1375bc" transform="matrix(5.55556 0 0 5.55556 16.52419624 160.98733896)"/><path d="m0-9.23c-.613 3.21-1.588 6.35-2.901 9.342.209-.393.211-.86.208-1.305-.014-2.039-.001-4.08-.041-6.118-.014-.697-.24-1.372.362-1.843.24-.188 2.376-.098 2.372-.076" fill="#fff" transform="matrix(5.55556 0 0 5.55556 51.7520022 60.55948084)"/></g></svg>

<?xml version="1.0" encoding="UTF-8" standalone="no"?>
<!DOCTYPE svg PUBLIC "-//W3C//DTD SVG 1.1//EN" "http://www.w3.org/Graphics/SVG/1.1/DTD/svg11.dtd">
<svg width="100%" height="100%" viewBox="0 0 58 177" version="1.1" xmlns="http://www.w3.org/2000/svg" xmlns:xlink="http://www.w3.org/1999/xlink" xml:space="preserve" xmlns:serif="http://www.serif.com/" style="fill-rule:evenodd;clip-rule:evenodd;stroke-linejoin:round;stroke-miterlimit:2;">
    <g transform="matrix(1,0,0,1,-8325.88,-11635.2)">
        <g transform="matrix(5.55556,0,0,5.55556,7263.77,9566.93)">
            <g transform="matrix(1,0,0,1,194.154,373.34)">
                <path d="M0,29.813C0.318,29.338 0.593,28.961 0.829,28.562C1.021,28.236 0.855,28.032 0.52,27.968C0.329,27.931 0.127,27.926 -0.068,27.941C-0.858,28.001 -0.941,28.159 -0.559,28.897C-0.417,29.172 -0.236,29.428 0,29.813M-2.579,25.096C-2.248,25.808 -1.972,26.413 -1.685,27.013C-1.504,27.391 -1.238,27.452 -0.809,27.379C-0.195,27.274 0.446,27.293 1.073,27.313C1.777,27.335 2.06,27.14 2.215,26.415C2.36,25.738 2.237,25.491 1.516,25.286C0.248,24.924 -1.039,24.708 -2.579,25.096M2.387,24.778C2.837,22.741 3.33,20.813 3.68,18.86C4.093,16.549 4.255,14.187 4.759,11.897C5.54,8.353 5.973,4.758 6.581,1.189C6.756,0.157 6.481,-0.282 5.441,-0.307C4.454,-0.331 3.457,-0.201 2.472,-0.076C1.775,0.013 1.326,0.455 1.174,1.157C0.939,2.246 0.671,3.33 0.489,4.428C0.236,5.96 0.042,7.502 -0.162,9.043C-0.769,13.623 -1.367,18.204 -1.967,22.785C-2.003,23.062 -2.013,23.342 -2.053,23.617C-2.118,24.057 -1.887,24.211 -1.502,24.169C-0.203,24.029 1.019,24.412 2.387,24.778M2.739,27.402C1.937,28.425 1.156,29.466 0.321,30.462C-0.034,30.884 -0.265,30.867 -0.506,30.444C-1.294,29.065 -2.07,27.678 -2.786,26.261C-2.969,25.899 -3.008,25.404 -2.953,24.991C-2.503,21.635 -2.014,18.284 -1.539,14.932C-1.51,14.734 -1.49,14.536 -1.466,14.338C-1.082,11.135 -0.727,7.927 -0.299,4.73C-0.12,3.392 0.205,2.072 0.481,0.747C0.604,0.162 0.971,-0.28 1.517,-0.487C2.108,-0.71 2.729,-0.905 3.353,-0.979C4.141,-1.071 4.946,-1.057 5.743,-1.034C6.727,-1.005 7.285,-0.459 7.333,0.536C7.355,1.007 7.27,1.487 7.201,1.959C6.922,3.89 6.767,5.853 6.315,7.744C5.341,11.824 5.041,16.009 4.224,20.11C3.804,22.217 3.391,24.326 2.962,26.431C2.899,26.74 2.767,27.035 2.667,27.337C2.691,27.359 2.715,27.381 2.739,27.402" style="fill:rgb(35,31,32);fill-rule:nonzero;"/>
            </g>
        </g>
        <g transform="matrix(5.55556,0,0,5.55556,7263.77,9566.93)">
            <g transform="matrix(1,0,0,1,196.541,373.009)">
                <path d="M0,25.109C-1.368,24.742 -2.589,24.36 -3.889,24.5C-4.274,24.542 -4.504,24.387 -4.44,23.948C-4.399,23.672 -4.39,23.392 -4.354,23.116C-3.754,18.535 -3.155,13.954 -2.549,9.374C-2.345,7.833 -2.15,6.291 -1.897,4.758C-1.716,3.66 -1.448,2.577 -1.212,1.488C-1.061,0.785 -0.612,0.343 0.085,0.255C1.07,0.13 2.067,0 3.055,0.024C4.095,0.048 4.369,0.488 4.194,1.52C3.586,5.088 3.153,8.684 2.373,12.228C1.869,14.517 1.707,16.88 1.293,19.191C0.943,21.144 0.451,23.072 0,25.109" style="fill:rgb(19,117,188);fill-rule:nonzero;"/>
            </g>
        </g>
        <g transform="matrix(5.55556,0,0,5.55556,7263.77,9566.93)">
            <g transform="matrix(1,0,0,1,191.576,400.403)">
                <path d="M0,-1.967C1.54,-2.356 2.827,-2.139 4.095,-1.778C4.815,-1.572 4.938,-1.325 4.794,-0.649C4.639,0.076 4.355,0.272 3.652,0.25C3.024,0.23 2.384,0.211 1.77,0.316C1.34,0.389 1.074,0.328 0.894,-0.05C0.606,-0.65 0.331,-1.256 0,-1.967" style="fill:rgb(255,229,166);fill-rule:nonzero;"/>
            </g>
        </g>
        <g transform="matrix(5.55556,0,0,5.55556,7263.77,9566.93)">
            <g transform="matrix(1,0,0,1,194.154,401.266)">
                <path d="M0,1.887C-0.236,1.502 -0.417,1.246 -0.559,0.971C-0.941,0.233 -0.858,0.075 -0.068,0.015C0.127,0 0.329,0.005 0.52,0.042C0.855,0.106 1.021,0.31 0.829,0.636C0.593,1.035 0.318,1.412 0,1.887" style="fill:rgb(19,117,188);fill-rule:nonzero;"/>
            </g>
        </g>
        <g transform="matrix(5.55556,0,0,5.55556,7263.77,9566.93)">
            <g transform="matrix(1,0,0,1,200.495,383.189)">
                <path d="M0,-9.23C-0.613,-6.02 -1.588,-2.88 -2.901,0.112C-2.692,-0.281 -2.69,-0.748 -2.693,-1.193C-2.707,-3.232 -2.694,-5.273 -2.734,-7.311C-2.748,-8.008 -2.974,-8.683 -2.372,-9.154C-2.132,-9.342 0.004,-9.252 0,-9.23" style="fill:white;fill-rule:nonzero;"/>
            </g>
        </g>
    </g>
</svg>
